X: 23276
T: Leaving The Ceili
R: reel
M: 4/4
K: Bminor
B2fB ~B2fB|gfed cABA|G2dG A2eA|fedc dB~B2:|
GABG A2Ag|fgaf gecA|GABG ABda|gecA Ad~d2:|

